X:373
T:Captain's Maggot. (p)1698.PLFD.373
M:4/4
L:1/4
Q:1/2=100
S:Playford, Dancing Master,9th Ed,2nd Supp.,1698.
O:England
H:1698.
Z:Chris Partington.
K:F
c/B/|AcAe|f>gf/g/a|fcAF|G3c/B/|
AFAc|f>gf/g/a|gf/e/d2|c3:|
|:e/f/|gefe|d/f/e/d/^cA|a(g/f/) e/f/e/d/|d3A/B/|
cfdB/A/|Gge(d/c/)|ag/f/f>e|f3:|
